!!!OTL: O ALTE BURSCHENHERRLICHKEIT
!!!ARE: Europa, Mitteleuropa, Deutschland
!!!SCT: F0473
!!!YEM: Copyright 1995, estate of Helmut Schaffrath.
**kern
*ICvox
*Ivox
*M4/4
*k[]
*C:
{8e
8f
=1
4g
4g
8a
8b
8f
8d
=2
4c
4e
4e
8r}
{8e
=3
4.d
8e
4f
4g
=4
4f
4e
4r}
{4g
=5
4.g
8e
4.cc
8b
=6
4.b
8a
4a}
{4a
=7
4.g
8a
8g
8e
8f
8d
=8
4d
4c
4r}
{4e
=9
4d
4g
4g
4b
=10
8b
8a
8cc
8b
4a}
{4d
=11
4d
4a
4a
4cc
=12
8cc
8b
8dd
8cc
8b
8a
8g}
{8g
=13
4.g
8e
4.cc
8b
=14
8b
8a
4a
4r}
{4a
=15
4.g
8a
8g
8e
8f
8d
=16
2d
4c}
==
!!!AGN: Studenten -, Burschenschafts - Lied
!!!ONB: ESAC (Essen Associative Code) Database: FINK
!!!AMT: simple quadruple
!!!AIN: vox
!!!EED: Helmut Schaffrath
!!!EEV: 1.0
*-
